X:1
T:Vals efter J J Bruun - arr med stämma och ostinato
S: Johan Jakob Bruun, Svenska låtar Skåne
N: Arr: Sven Midgren
R:Vals
O:Skåne
M:3/4
L:1/8
K:Em
V:1
|: d2 (dB) cA | B2 (BG) EF | G2 G2 A2 | (B^A) (Bc) B2 |
d2 (dB) cA | B2 (BG) EF | G2 (GA) FG | E4 z2 :|
|: F2 (FG) AF | G2 (FE) ^DE | F2 (FG) AF | G2 FE =D2 |
d2 (dB) cA | B2 (BG) EF | G2 (GA) FG | E4 z2 :|
V:2
|:B2 BG AF | G2 GE B,D | E2 E2 F2 | GF GA G2|
B2 BG AF | G2 GE B,D | E2 EF DE | B,4 z2 :|
|: D2 DE FD | E2 DB, ^A,B, | D2 DE FD | E2 DA, G,2 |
B2 BG AF | G2 GE B,D | E2 EF DE | B,4 z2 :|
V:3
|: D2D2D2 | E2E2E2 | D2D2D2 | E4 z2 |
 D2D2D2 | E2E2E2 | D2D2D2 | E4 z2  :|
|: A,2A,2A,2| B,2B,2B,2 | A,2A,2A,2 | G,4 z2 |
 A,2A,2A,2| B,2B,2B,2 | A,2A,2A,2 | G,4 z2  :|

